Hatter-kde/status/24/microphone-sensitivity-muted-20-symbolic.svg

<?xml version="1.0" encoding="UTF-8" standalone="no"?>
<svg
   xmlns:dc="http://purl.org/dc/elements/1.1/"
   xmlns:cc="http://creativecommons.org/ns#"
   xmlns:rdf="http://www.w3.org/1999/02/22-rdf-syntax-ns#"
   xmlns:svg="http://www.w3.org/2000/svg"
   xmlns="http://www.w3.org/2000/svg"
   id="svg6"
   version="1.1"
   width="24"
   height="24">
  <metadata
     id="metadata12">
    <rdf:RDF>
      <cc:Work
         rdf:about="">
        <dc:format>image/svg+xml</dc:format>
        <dc:type
           rdf:resource="http://purl.org/dc/dcmitype/StillImage" />
        <dc:title></dc:title>
      </cc:Work>
    </rdf:RDF>
  </metadata>
  <defs
     id="defs10" />
  <path
     id="path2"
     d="M 6.3515625 4.7363281 L 5.4121094 5.6777344 L 8.1210938 8.3847656 L 9.0605469 7.4453125 L 6.3515625 4.7363281 z M 12 5 C 10.892 5 10 5.892 10 7 L 10 13 C 10 14.108 10.892 15 12 15 C 13.108 15 14 14.108 14 13 L 14 7 C 14 5.892 13.108 5 12 5 z M 7 10 L 7 11 L 8 11 L 8 13 A 3.981 3.981 0 0 0 11 16.861328 L 11 19 L 10 19 L 10 20 L 14 20 L 14 19 L 13 19 L 13 16.861328 A 3.981 3.981 0 0 0 16 13 L 16 11 L 17 11 L 17 10 L 15 10 L 15 13 C 15 14.662 13.662 16 12 16 C 10.338 16 9 14.662 9 13 L 9 10 L 7 10 z "
     style="overflow:visible;isolation:auto;mix-blend-mode:normal;fill:#f2f2f2;marker:none" />
</svg>

<?xml version="1.0" encoding="UTF-8"?>
<svg id="svg6" width="24" height="24" version="1.1" xmlns="http://www.w3.org/2000/svg" xmlns:cc="http://creativecommons.org/ns#" xmlns:dc="http://purl.org/dc/elements/1.1/" xmlns:rdf="http://www.w3.org/1999/02/22-rdf-syntax-ns#">
 <metadata id="metadata12">
  <rdf:RDF>
   <cc:Work rdf:about="">
    <dc:format>image/svg+xml</dc:format>
    <dc:type rdf:resource="http://purl.org/dc/dcmitype/StillImage"/>
    <dc:title/>
   </cc:Work>
  </rdf:RDF>
 </metadata>
 <path id="path2" d="m6.3516 4.7363-0.93945 0.94141 2.709 2.707 0.93945-0.93945-2.709-2.709zm5.6484 0.26367c-1.108 0-2 0.892-2 2v6c0 1.108 0.892 2 2 2s2-0.892 2-2v-6c0-1.108-0.892-2-2-2zm-5 5v1h1v2a3.981 3.981 0 0 0 3 3.8613v2.1387h-1v1h4v-1h-1v-2.1387a3.981 3.981 0 0 0 3-3.8613v-2h1v-1h-2v3c0 1.662-1.338 3-3 3s-3-1.338-3-3v-3h-2z" color="#bebebe" fill="#fff" style="isolation:auto;mix-blend-mode:normal"/>
</svg>
